; generated by Slic3r 1.1.7 on 2016-02-10 at 17:05:59

; perimeters extrusion width = 0.40mm
; infill extrusion width = 0.67mm
; solid infill extrusion width = 0.67mm
; top infill extrusion width = 0.67mm
; support material extrusion width = 0.40mm

G21 ; set units to millimeters
M107
M190 S60 ; wait for bed temperature to be reached
M104 S210 ; set temperature
G28 ; home all axes
G1 Z5 F5000 ; lift nozzle
M109 S210 ; wait for temperature to be reached
G90 ; use absolute coordinates
G92 E0
M82 ; use absolute distances for extrusion
G1 F2400.000 E-3.00000
G92 E0
G1 Z-1.950 F4200.000
G1 X48.507 Y58.470 F4200.000
G1 E3.00000 F2400.000
G1 X48.817 Y58.232 E3.03616 F1080.000
G1 X50.087 Y57.497 E3.17183
G1 X50.711 Y57.246 E3.23406
G1 X78.267 Y47.380 E5.94118
G1 X78.690 Y47.232 E5.98258
G1 X79.922 Y46.950 E6.09947
G1 X80.332 Y46.904 E6.13769
G1 X81.000 Y46.864 E6.19956
G1 X119.632 Y46.900 E9.77271
G1 X120.078 Y46.950 E9.81422 F1080.000
G1 X121.310 Y47.232 E9.93111
G1 X149.552 Y57.347 E12.70570
G1 X149.913 Y57.497 E12.74186
G1 X151.183 Y58.232 E12.87752
G1 X151.493 Y58.470 E12.91368
G1 X152.530 Y59.507 E13.04938
G1 X152.768 Y59.817 E13.08554
G1 X153.503 Y61.087 E13.22117
G1 X153.653 Y61.448 E13.25732
G1 X154.025 Y62.798 E13.38691
G1 X155.231 Y71.482 E14.19778
G1 X155.231 Y121.474 E18.82157
G1 X155.083 Y122.754 E18.94075
G1 X153.653 Y128.552 E19.49313
G1 X153.501 Y128.916 E19.52954
G1 X152.768 Y130.183 E19.66491
G1 X152.530 Y130.493 E19.70107
G1 X151.493 Y131.530 E19.83678
G1 X151.180 Y131.770 E19.87327
G1 X149.913 Y132.503 E20.00859
G1 X149.289 Y132.754 E20.07084
G1 X121.733 Y142.620 E22.77795
G1 X121.310 Y142.768 E22.81935
G1 X120.078 Y143.050 E22.93625
G1 X119.000 Y143.136 E23.03630
G1 X80.368 Y143.100 E26.60945
G1 X79.921 Y143.050 E26.65100
G1 X78.690 Y142.768 E26.76785
G1 X78.232 Y142.607 E26.81268
G1 X50.448 Y132.653 E29.54245
G1 X50.084 Y132.501 E29.57887
G1 X48.817 Y131.768 E29.71425
G1 X48.507 Y131.530 E29.75046
G1 X47.470 Y130.493 E29.88611
G1 X47.229 Y130.180 E29.92260
G1 X46.497 Y128.913 E30.05793
G1 X46.347 Y128.551 E30.09422
G1 X45.990 Y127.303 E30.21424
G1 X44.769 Y119.411 E30.95290
G1 X44.798 Y74.205 E35.13398
G1 X45.965 Y62.871 E36.18785
G1 X46.347 Y61.448 E36.32414
G1 X46.497 Y61.087 E36.36030
G1 X47.232 Y59.817 E36.49596
G1 X47.471 Y59.505 E36.53234
G1 X48.465 Y58.512 E36.66225
G1 F2400.000 E33.66225
G92 E0
G1 X86.602 Y59.784 F4200.000
G1 E3.00000 F2400.000
G1 X86.602 Y60.242 E3.04235 F720.000
G1 X84.724 Y59.528 E3.22815
G1 X84.181 Y59.153 E3.28922
G1 X83.743 Y58.659 E3.35028
G1 X83.436 Y58.074 E3.41139
G1 X83.082 Y56.641 E3.54789
G1 X83.309 Y56.641 E3.56887
G1 X83.436 Y56.126 E3.61791
G1 X83.743 Y55.541 E3.67902
G1 X84.181 Y55.047 E3.74008
G1 X84.724 Y54.672 E3.80115
G1 X85.398 Y54.416 E3.86778
G1 X85.398 Y53.958 E3.91013
G1 X87.276 Y54.672 E4.09594
G1 X87.819 Y55.047 E4.15701
G1 X88.257 Y55.541 E4.21807
G1 X88.564 Y56.126 E4.27917
G1 X88.723 Y56.769 E4.34038
G1 X88.723 Y57.431 E4.40167
G1 X88.564 Y58.074 E4.46287
G1 X88.257 Y58.659 E4.52398
G1 X87.819 Y59.153 E4.58504
G1 X87.276 Y59.528 E4.64611
G1 X86.658 Y59.763 E4.70720
G1 X86.504 Y59.141 F4200.000
G1 X85.967 Y59.207 E4.75731 F360.000
G1 X85.967 Y59.320 E4.76781
G1 X85.022 Y58.961 E4.86124
G1 X84.606 Y58.673 E4.90806
G1 X84.270 Y58.295 E4.95488
G1 X84.034 Y57.846 E5.00172
G1 X83.894 Y57.277 E5.05600
G1 X83.913 Y57.277 E5.05776
G1 X83.913 Y56.846 E5.09759
G1 X84.034 Y56.354 E5.14450
G1 X84.270 Y55.905 E5.19135
G1 X84.606 Y55.527 E5.23816
G1 X85.022 Y55.239 E5.28498
G1 X85.496 Y55.059 E5.33182
G1 X86.033 Y54.993 E5.38193
G1 X86.033 Y54.880 E5.39243 F360.000
G1 X86.978 Y55.239 E5.48586
G1 X87.394 Y55.527 E5.53268
G1 X87.730 Y55.905 E5.57950
G1 X87.965 Y56.354 E5.62634
G1 X88.087 Y56.846 E5.67325
G1 X88.087 Y57.354 E5.72023
G1 X87.966 Y57.846 E5.76714
G1 X87.730 Y58.295 E5.81398
G1 X87.394 Y58.673 E5.86080
G1 X86.978 Y58.961 E5.90762
G1 X86.560 Y59.120 E5.94890
G1 F2400.000 E2.94890
G92 E0
G1 X85.931 Y54.944 F4200.000
G1 X114.602 Y59.784 F4200.000
G1 E3.00000 F2400.000
G1 X114.602 Y60.242 E3.04235 F720.000
G1 X112.724 Y59.528 E3.22815
G1 X112.181 Y59.153 E3.28922
G1 X111.743 Y58.659 E3.35028
G1 X111.436 Y58.074 E3.41139
G1 X111.277 Y57.431 E3.47260
G1 X111.277 Y56.769 E3.53388
G1 X111.436 Y56.126 E3.59509
G1 X111.743 Y55.541 E3.65619
G1 X112.181 Y55.047 E3.71726
G1 X112.724 Y54.672 E3.77832
G1 X113.398 Y54.416 E3.84496
G1 X113.398 Y53.958 E3.88731
G1 X115.276 Y54.672 E4.07311
G1 X115.819 Y55.047 E4.13418
G1 X116.257 Y55.541 E4.19525
G1 X116.564 Y56.126 E4.25635
G1 X116.723 Y56.769 E4.31756
G1 X116.723 Y57.431 E4.37885
G1 X116.564 Y58.074 E4.44005
G1 X116.257 Y58.659 E4.50116
G1 X115.819 Y59.153 E4.56222
G1 X115.276 Y59.528 E4.62329
G1 X114.658 Y59.763 E4.68438
G1 X114.504 Y59.141 F4200.000
G1 X113.967 Y59.207 E4.73449 F360.000
G1 X113.967 Y59.320 E4.74499
G1 X113.022 Y58.961 E4.83842
G1 X112.606 Y58.673 E4.88524
G1 X112.270 Y58.295 E4.93206
G1 X112.034 Y57.846 E4.97890
G1 X111.913 Y57.354 E5.02581
G1 X111.913 Y56.846 E5.07279
G1 X112.034 Y56.354 E5.11970
G1 X112.270 Y55.905 E5.16654
G1 X112.606 Y55.527 E5.21336
G1 X113.022 Y55.239 E5.26018
G1 X113.496 Y55.059 E5.30701
G1 X114.033 Y54.993 E5.35713
G1 X114.033 Y54.880 E5.36763 F360.000
G1 X114.978 Y55.239 E5.46106
G1 X115.394 Y55.527 E5.50788
G1 X115.730 Y55.905 E5.55469
G1 X115.965 Y56.354 E5.60154
G1 X116.087 Y56.846 E5.64845
G1 X116.087 Y57.354 E5.69542
G1 X115.966 Y57.846 E5.74233
G1 X115.730 Y58.295 E5.78918
G1 X115.394 Y58.673 E5.83599
G1 X114.978 Y58.961 E5.88281
G1 X114.560 Y59.120 E5.92410
G1 F2400.000 E2.92410
G92 E0
G1 X113.931 Y54.944 F4200.000
G1 X105.986 Y60.186 F4200.000
G1 E3.00000 F2400.000
G1 X94.014 Y60.186 E4.10723 F720.000
G1 X94.014 Y54.514 E4.63177
G1 X105.986 Y54.514 E5.73900
G1 X105.986 Y60.126 E6.25799
G1 X105.350 Y59.550 F4200.000
G1 X94.650 Y59.550 E7.24764 F360.000
G1 X94.650 Y55.150 E7.65460
G1 X105.350 Y55.150 E8.64426
G1 X105.350 Y59.490 E9.04567
G1 X105.350 Y59.950 F4200.000
G1 X86.658 Y130.237 F4200.000
G1 X87.276 Y130.472 E9.10678 F720.000
G1 X87.401 Y130.559 E9.12092
G1 X87.819 Y130.847 E9.16784
G1 X88.257 Y131.341 E9.22891
G1 X88.564 Y131.926 E9.29002
G1 X88.723 Y132.569 E9.35122
G1 X88.723 Y133.231 E9.41251
G1 X88.564 Y133.874 E9.47371
G1 X88.257 Y134.459 E9.53482
G1 X87.819 Y134.953 E9.59589
G1 X87.276 Y135.328 E9.65695
G1 X86.658 Y135.563 E9.71807
G1 X86.000 Y135.643 E9.77937
G1 X85.847 Y135.624 E9.79358
G1 X85.342 Y135.563 E9.84068
G1 X84.724 Y135.328 E9.90179
G1 X84.181 Y134.953 E9.96286
G1 X83.743 Y134.459 E10.02392
G1 X83.436 Y133.874 E10.08503
G1 X83.277 Y133.231 E10.14624
G1 X83.277 Y132.569 E10.20752
G1 X83.436 Y131.926 E10.26872
G1 X83.743 Y131.341 E10.32983
G1 X84.181 Y130.847 E10.39090
G1 X84.724 Y130.472 E10.45197
G1 X85.342 Y130.237 E10.51308
G1 X86.000 Y130.157 E10.57438
G1 X86.153 Y130.176 E10.58859
G1 X86.598 Y130.230 E10.63014 F720.000
G1 X86.504 Y130.859 F4200.000
G1 X86.978 Y131.039 E10.67697 F360.000
G1 X87.040 Y131.082 E10.68400
G1 X87.394 Y131.327 E10.72380
G1 X87.730 Y131.705 E10.77061
G1 X87.965 Y132.154 E10.81746
G1 X88.087 Y132.646 E10.86437
G1 X88.087 Y133.154 E10.91134
G1 X87.966 Y133.646 E10.95825
G1 X87.730 Y134.095 E11.00510
G1 X87.394 Y134.473 E11.05191
G1 X86.978 Y134.761 E11.09873
G1 X86.504 Y134.941 E11.14557
G1 X86.000 Y135.003 E11.19256
G1 X85.496 Y134.941 E11.23956
G1 X85.022 Y134.761 E11.28639
G1 X84.606 Y134.473 E11.33321
G1 X84.270 Y134.095 E11.38003
G1 X84.034 Y133.646 E11.42687
G1 X83.913 Y133.154 E11.47378
G1 X83.913 Y132.646 E11.52076
G1 X84.034 Y132.154 E11.56767
G1 X84.270 Y131.705 E11.61451
G1 X84.606 Y131.327 E11.66133
G1 X85.022 Y131.039 E11.70815
G1 X85.496 Y130.859 E11.75498
G1 X85.571 Y130.850 E11.76203
G1 X86.000 Y130.797 E11.80198 F360.000
G1 X86.445 Y130.852 E11.84342
G1 X85.331 Y130.530 F4200.000
G1 X94.014 Y129.814 F4200.000
G1 X105.986 Y129.814 E12.95065 F720.000
G1 X105.986 Y135.486 E13.47519
G1 X94.014 Y135.486 E14.58242
G1 X94.014 Y129.874 E15.10141
G1 X94.650 Y130.450 F4200.000
G1 X105.350 Y130.450 E16.09106 F360.000
G1 X105.350 Y134.850 E16.49802
G1 X94.650 Y134.850 E17.48768
G1 X94.650 Y130.510 E17.88909
G1 X94.650 Y130.050 F4200.000
G1 F2400.000 E14.88909
G92 E0
G1 X111.277 Y132.569 F4200.000
G1 E3.00000 F2400.000
G1 X111.436 Y131.926 E3.06120 F720.000
G1 X111.743 Y131.341 E3.12231
G1 X112.181 Y130.847 E3.18338
G1 X112.724 Y130.472 E3.24444
G1 X113.342 Y130.237 E3.30556
G1 X114.000 Y130.157 E3.36686
G1 X114.153 Y130.176 E3.38107
G1 X114.658 Y130.237 E3.42816 F720.000
G1 X115.276 Y130.472 E3.48927
G1 X115.819 Y130.847 E3.55034
G1 X116.257 Y131.341 E3.61141
G1 X116.564 Y131.926 E3.67252
G1 X116.723 Y132.569 E3.73372
G1 X116.723 Y133.231 E3.79501
G1 X116.564 Y133.874 E3.85621
G1 X116.257 Y134.459 E3.91732
G1 X115.819 Y134.953 E3.97839
G1 X115.276 Y135.328 E4.03945
G1 X114.658 Y135.563 E4.10057
G1 X114.000 Y135.643 E4.16187
G1 X113.342 Y135.563 E4.22318
G1 X112.724 Y135.328 E4.28429
G1 X112.181 Y134.953 E4.34535
G1 X111.743 Y134.459 E4.40642
G1 X111.436 Y133.874 E4.46753
G1 X111.277 Y133.231 E4.52873
G1 X111.277 Y132.629 E4.58447
G1 X111.913 Y132.646 F4200.000
G1 X112.034 Y132.154 E4.63138 F360.000
G1 X112.270 Y131.705 E4.67823
G1 X112.606 Y131.327 E4.72504
G1 X113.022 Y131.039 E4.77186
G1 X113.496 Y130.859 E4.81870
G1 X113.571 Y130.850 E4.82575
G1 X114.000 Y130.797 E4.86569 F360.000
G1 X114.504 Y130.859 E4.91269
G1 X114.978 Y131.039 E4.95952
G1 X115.394 Y131.327 E5.00634
G1 X115.730 Y131.705 E5.05316
G1 X115.965 Y132.154 E5.10000
G1 X116.087 Y132.646 E5.14691
G1 X116.087 Y133.154 E5.19389
G1 X115.966 Y133.646 E5.24080
G1 X115.730 Y134.095 E5.28764
G1 X115.394 Y134.473 E5.33446
G1 X114.978 Y134.761 E5.38128
G1 X114.504 Y134.941 E5.42811
G1 X114.000 Y135.003 E5.47511
G1 X113.496 Y134.941 E5.52210
G1 X113.022 Y134.761 E5.56894
G1 X112.606 Y134.473 E5.61576
G1 X112.270 Y134.095 E5.66257
G1 X112.035 Y133.646 E5.70942
G1 X111.913 Y133.154 E5.75633
G1 X111.913 Y132.706 E5.79776
G1 X113.622 Y130.453 F4200.000
G1 X106.621 Y129.179 F4200.000
G1 X93.379 Y129.179 E7.02256 F720.000
G1 X93.379 Y135.879 E7.64225
G1 X88.225 Y135.879 E8.11894
G1 X88.114 Y135.522 E8.15354
G1 X88.243 Y135.432 E8.16813
G1 X88.784 Y134.822 E8.24345
G1 X89.163 Y134.101 E8.31882
G1 X89.358 Y133.309 E8.39431
G1 X89.358 Y132.491 E8.46992
G1 X89.163 Y131.699 E8.54542
G1 X88.784 Y130.978 E8.62078
G1 X88.243 Y130.368 E8.69611
G1 X87.573 Y129.905 E8.77142
G1 X86.812 Y129.616 E8.84681
G1 X86.000 Y129.517 E8.92243
G1 X85.188 Y129.616 E8.99804
G1 X84.427 Y129.905 E9.07343
G1 X83.757 Y130.368 E9.14874
G1 X83.216 Y130.978 E9.22406
G1 X82.837 Y131.699 E9.29944
G1 X82.642 Y132.491 E9.37493
G1 X82.642 Y133.309 E9.45053
G1 X82.837 Y134.101 E9.52602
G1 X83.217 Y134.822 E9.60140
G1 X83.757 Y135.432 E9.67671
G1 X83.886 Y135.522 E9.69131
G1 X83.775 Y135.879 E9.72591
G1 X81.091 Y135.879 E9.97415
G1 X80.918 Y135.859 E9.99028
G1 X80.770 Y135.788 E10.00543
G1 X80.712 Y135.730 E10.01307
G1 X80.641 Y135.582 E10.02822
G1 X80.621 Y135.409 E10.04435
G1 X80.621 Y132.442 E10.31878
G1 X80.559 Y131.565 E10.40005
G1 X80.361 Y130.650 E10.48666
G1 X80.039 Y129.780 E10.57240
G1 X79.968 Y129.639 E10.58702
G1 X79.611 Y128.986 E10.65591
G1 X79.077 Y128.253 E10.73976
G1 X78.978 Y128.131 E10.75429
G1 X78.346 Y127.502 E10.83680
G1 X77.509 Y126.886 E10.93290
G1 X76.712 Y126.458 E11.01651
G1 X75.888 Y126.152 E11.09786
G1 X74.885 Y125.938 E11.19275
G1 X74.040 Y125.879 E11.27110
G1 X53.121 Y125.879 E13.20586
G1 X53.121 Y64.121 E18.91787
G1 X74.058 Y64.121 E20.85437
G1 X74.925 Y64.060 E20.93468
G1 X75.842 Y63.862 E21.02148
G1 X75.980 Y63.815 E21.03502
G1 X76.719 Y63.539 E21.10797
G1 X77.535 Y63.099 E21.19372
G1 X78.387 Y62.460 E21.29220
G1 X79.026 Y61.814 E21.37623
G1 X79.541 Y61.127 E21.45561
G1 X79.975 Y60.349 E21.53804
G1 X80.042 Y60.213 E21.55205
G1 X80.361 Y59.350 E21.63715
G1 X80.558 Y58.437 E21.72354
G1 X80.621 Y57.556 E21.80525
G1 X80.621 Y54.591 E22.07946
G1 X80.641 Y54.418 E22.09559
G1 X80.712 Y54.270 E22.11074
G1 X80.770 Y54.212 E22.11838
G1 X80.918 Y54.141 E22.13353
G1 X81.091 Y54.121 E22.14966
G1 X83.775 Y54.121 E22.39790
G1 X83.886 Y54.478 E22.43250
G1 X83.757 Y54.568 E22.44710
G1 X83.216 Y55.178 E22.52241
G1 X82.781 Y56.005 E22.60892
G1 X82.270 Y56.005 E22.65620
G1 X82.837 Y58.301 E22.87492
G1 X83.216 Y59.022 E22.95029
G1 X83.757 Y59.632 E23.02560
G1 X84.427 Y60.095 E23.10092
G1 X87.238 Y61.164 E23.37909
G1 X87.238 Y60.222 E23.46615
G1 X87.573 Y60.095 E23.49937
G1 X88.243 Y59.632 E23.57468
G1 X88.784 Y59.022 E23.65000
G1 X89.163 Y58.301 E23.72537
G1 X89.358 Y57.509 E23.80086
G1 X89.358 Y56.691 E23.87646
G1 X89.163 Y55.899 E23.95196
G1 X88.784 Y55.178 E24.02733
G1 X88.243 Y54.568 E24.10264
G1 X88.114 Y54.478 E24.11725
G1 X88.225 Y54.121 E24.15185
G1 X93.379 Y54.121 E24.62854
G1 X93.379 Y60.821 E25.24822
G1 X106.621 Y60.821 E26.47303
G1 X106.621 Y54.121 E27.09272
G1 X111.775 Y54.121 E27.56941
G1 X111.886 Y54.478 E27.60401
G1 X111.757 Y54.568 E27.61862
G1 X111.216 Y55.178 E27.69393
G1 X110.837 Y55.899 E27.76930
G1 X110.642 Y56.691 E27.84480
G1 X110.642 Y57.509 E27.92039
G1 X110.837 Y58.301 E27.99589
G1 X111.216 Y59.022 E28.07126
G1 X111.757 Y59.632 E28.14658
G1 X112.427 Y60.095 E28.22189
G1 X115.238 Y61.164 E28.50006
G1 X115.238 Y60.222 E28.58712
G1 X115.573 Y60.095 E28.62034
G1 X116.243 Y59.632 E28.69565
G1 X116.784 Y59.022 E28.77097
G1 X117.163 Y58.301 E28.84634
G1 X117.358 Y57.509 E28.92183
G1 X117.358 Y56.691 E28.99743
G1 X117.163 Y55.899 E29.07293
G1 X116.784 Y55.178 E29.14830
G1 X116.243 Y54.568 E29.22361
G1 X116.114 Y54.478 E29.23822
G1 X116.225 Y54.121 E29.27282
G1 X118.909 Y54.121 E29.52105
G1 X119.082 Y54.141 E29.53719
G1 X119.230 Y54.212 E29.55233
G1 X119.288 Y54.270 E29.55998
G1 X119.359 Y54.418 E29.57512
G1 X119.379 Y54.591 E29.59126
G1 X119.379 Y57.558 E29.86569
G1 X119.441 Y58.435 E29.94696
G1 X119.639 Y59.350 E30.03356
G1 X119.961 Y60.220 E30.11931
G1 X120.032 Y60.361 E30.13393
G1 X120.389 Y61.014 E30.20280
G1 X120.923 Y61.747 E30.28667
G1 X121.022 Y61.869 E30.30120
G1 X121.654 Y62.498 E30.38371
G1 X122.491 Y63.114 E30.47979
G1 X123.288 Y63.542 E30.56342
G1 X124.112 Y63.848 E30.64474
G1 X125.116 Y64.062 E30.73967
G1 X125.960 Y64.121 E30.81801
G1 X146.879 Y64.121 E32.75277
G1 X146.879 Y125.879 E38.46478
G1 X125.942 Y125.879 E40.40127
G1 X125.075 Y125.940 E40.48160
G1 X124.158 Y126.138 E40.56838
G1 X124.020 Y126.185 E40.58193
G1 X123.281 Y126.461 E40.65487
G1 X122.465 Y126.901 E40.74061
G1 X121.613 Y127.540 E40.83911
G1 X120.974 Y128.186 E40.92314
G1 X120.459 Y128.873 E41.00252
G1 X120.025 Y129.651 E41.08494
G1 X119.958 Y129.787 E41.09895
G1 X119.639 Y130.650 E41.18406
G1 X119.442 Y131.563 E41.27045
G1 X119.379 Y132.444 E41.35215
G1 X119.379 Y135.409 E41.62636
G1 X119.359 Y135.582 E41.64250
G1 X119.288 Y135.730 E41.65764
G1 X119.230 Y135.788 E41.66528
G1 X119.082 Y135.859 E41.68043
G1 X118.909 Y135.879 E41.69657
G1 X116.225 Y135.879 E41.94480
G1 X116.114 Y135.522 E41.97940
G1 X116.243 Y135.432 E41.99399
G1 X116.784 Y134.822 E42.06931
G1 X117.163 Y134.101 E42.14468
G1 X117.358 Y133.309 E42.22017
G1 X117.358 Y132.491 E42.29578
G1 X117.163 Y131.699 E42.37128
G1 X116.784 Y130.978 E42.44664
G1 X116.243 Y130.368 E42.52197
G1 X115.573 Y129.905 E42.59728
G1 X114.812 Y129.616 E42.67267
G1 X114.000 Y129.517 E42.74829
G1 X113.188 Y129.616 E42.82390
G1 X112.427 Y129.905 E42.89929
G1 X111.757 Y130.368 E42.97460
G1 X111.216 Y130.978 E43.04992
G1 X110.837 Y131.699 E43.12530
G1 X110.642 Y132.491 E43.20078
G1 X110.642 Y133.309 E43.27639
G1 X110.837 Y134.101 E43.35189
G1 X111.217 Y134.822 E43.42726
G1 X111.757 Y135.432 E43.50257
