; generated by Slic3r 1.1.7 on 2016-02-11 at 09:52:57

; perimeters extrusion width = 0.40mm
; infill extrusion width = 0.67mm
; solid infill extrusion width = 0.67mm
; top infill extrusion width = 0.67mm
; support material extrusion width = 0.40mm

G21 ; set units to millimeters
M107
M190 S60 ; wait for bed temperature to be reached
M104 S210 ; set temperature
G28 ; home all axes
G1 Z5 F5000 ; lift nozzle
M109 S210 ; wait for temperature to be reached
G90 ; use absolute coordinates
G92 E0
M82 ; use absolute distances for extrusion
G1 F2400.000 E-3.00000
G92 E0
G1 Z-1.950 F4200.000
G1 X63.052 Y44.072 F4200.000
G1 E3.00000 F2400.000
G1 X63.842 Y43.080 E3.11724 F1080.000
G1 X64.080 Y42.842 E3.14843
G1 X65.072 Y42.052 E3.26569
G1 X65.356 Y41.874 E3.29672
G1 X66.482 Y41.331 E3.41231
G1 X66.797 Y41.221 E3.44316
G1 X68.027 Y40.939 E3.55992
G1 X69.000 Y40.864 E3.65015
G1 X131.637 Y40.900 E9.44350
G1 X131.973 Y40.939 E9.47475 F1080.000
G1 X133.203 Y41.221 E9.59152
G1 X133.518 Y41.332 E9.62237
G1 X134.644 Y41.874 E9.73796
G1 X134.928 Y42.052 E9.76899
G1 X135.920 Y42.842 E9.88623
G1 X136.158 Y43.080 E9.91742
G1 X136.948 Y44.072 E10.03471
G1 X137.126 Y44.356 E10.06574
G1 X137.668 Y45.482 E10.18130
G1 X137.779 Y45.797 E10.21215
G1 X138.061 Y47.027 E10.32892
G1 X138.136 Y48.000 E10.41915
G1 X138.100 Y142.637 E19.17222
G1 X138.061 Y142.973 E19.20348
G1 X137.779 Y144.203 E19.32023
G1 X137.668 Y144.518 E19.35110
G1 X137.126 Y145.644 E19.46666
G1 X136.948 Y145.928 E19.49768
G1 X136.158 Y146.920 E19.61495
G1 X135.920 Y147.158 E19.64614
G1 X134.928 Y147.948 E19.76342
G1 X134.644 Y148.126 E19.79444
G1 X133.518 Y148.668 E19.91000
G1 X133.203 Y148.779 E19.94092
G1 X131.973 Y149.061 E20.05763
G1 X131.000 Y149.136 E20.14786
G1 X68.363 Y149.100 E25.94121
G1 X68.027 Y149.061 E25.97249
G1 X66.797 Y148.779 E26.08924
G1 X66.482 Y148.668 E26.12009
G1 X65.356 Y148.126 E26.23565
G1 X65.072 Y147.948 E26.26670
G1 X64.080 Y147.158 E26.38397
G1 X63.842 Y146.920 E26.41516
G1 X63.052 Y145.928 E26.53239
G1 X62.874 Y145.643 E26.56346
G1 X62.331 Y144.518 E26.67902
G1 X62.221 Y144.203 E26.70987
G1 X61.939 Y142.973 E26.82663
G1 X61.864 Y142.000 E26.91686
G1 X61.900 Y47.363 E35.66993
G1 X61.939 Y47.027 E35.70118
G1 X62.221 Y45.797 E35.81793
G1 X62.331 Y45.482 E35.84878
G1 X62.874 Y44.356 E35.96438
G1 X63.020 Y44.123 E35.98987
G1 F2400.000 E32.98987
G92 E0
G1 X117.857 Y70.595 F4200.000
G1 E3.00000 F2400.000
G1 X118.189 Y70.643 E3.03101 F720.000
G1 X118.870 Y70.956 E3.10034
G1 X119.435 Y71.446 E3.16952
G1 X119.841 Y72.076 E3.23881
G1 X120.054 Y72.797 E3.30833
G1 X120.054 Y73.550 E3.37804
G1 X119.841 Y74.271 E3.44757
G1 X119.435 Y74.901 E3.51684
G1 X118.870 Y75.391 E3.58603
G1 X118.189 Y75.704 E3.65537
G1 X117.443 Y75.812 E3.72510
G1 X116.696 Y75.704 E3.79485
G1 X116.015 Y75.391 E3.86418
G1 X115.450 Y74.901 E3.93337
G1 X115.044 Y74.271 E4.00265
G1 X114.832 Y73.550 E4.07217
G1 X114.832 Y72.797 E4.14188
G1 X115.044 Y72.076 E4.21140
G1 X115.450 Y71.446 E4.28068
G1 X116.015 Y70.956 E4.34987
G1 X116.696 Y70.643 E4.41920
G1 X117.028 Y70.595 E4.45021
G1 X117.028 Y70.155 E4.49093
G1 X116.696 Y70.107 E4.52194
G1 X116.015 Y69.794 E4.59127
G1 X115.450 Y69.304 E4.66046
G1 X115.044 Y68.675 E4.72974
G1 X114.832 Y67.954 E4.79926
G1 X114.832 Y67.200 E4.86897
G1 X115.044 Y66.479 E4.93849
G1 X115.450 Y65.849 E5.00776
G1 X116.015 Y65.359 E5.07696
G1 X116.696 Y65.047 E5.14629
G1 X117.443 Y64.939 E5.21603
G1 X118.189 Y65.047 E5.28578
G1 X118.870 Y65.359 E5.35511
G1 X119.435 Y65.849 E5.42430
G1 X119.841 Y66.479 E5.49358
G1 X120.054 Y67.200 E5.56310
G1 X120.054 Y67.954 E5.63281
G1 X119.841 Y68.675 E5.70233
G1 X119.435 Y69.304 E5.77161
G1 X118.870 Y69.794 E5.84080
G1 X118.189 Y70.107 E5.91013
G1 X117.857 Y70.155 E5.94114
G1 X117.857 Y70.535 E5.97631
G1 X117.704 Y69.535 F4200.000
G1 X117.443 Y69.573 E6.00071 F720.000
G1 X116.878 Y69.491 E6.05348
G1 X116.363 Y69.255 E6.10592
G1 X115.935 Y68.884 E6.15828
G1 X115.628 Y68.407 E6.21070
G1 X115.467 Y67.862 E6.26329
G1 X115.467 Y67.292 E6.31602
G1 X115.628 Y66.746 E6.36862
G1 X115.935 Y66.270 E6.42103
G1 X116.363 Y65.899 E6.47340
G1 X116.878 Y65.663 E6.52583
G1 X117.042 Y65.639 E6.54118
G1 X117.443 Y65.581 E6.57860 F720.000
G1 X118.007 Y65.663 E6.63137
G1 X118.523 Y65.899 E6.68381
G1 X118.950 Y66.270 E6.73616
G1 X119.257 Y66.746 E6.78859
G1 X119.418 Y67.292 E6.84117
G1 X119.418 Y67.862 E6.89391
G1 X119.257 Y68.407 E6.94650
G1 X118.950 Y68.884 E6.99892
G1 X118.523 Y69.255 E7.05128
G1 X118.007 Y69.491 E7.10372
G1 X117.763 Y69.526 E7.12653
G1 X117.613 Y68.906 F4200.000
G1 X117.443 Y68.930 E7.14243 F360.000
G1 X117.060 Y68.875 E7.17822
G1 X116.710 Y68.715 E7.21377
G1 X116.420 Y68.463 E7.24930
G1 X116.212 Y68.140 E7.28486
G1 X116.103 Y67.770 E7.32052
G1 X116.103 Y67.384 E7.35628
G1 X116.212 Y67.014 E7.39194
G1 X116.420 Y66.690 E7.42750
G1 X116.710 Y66.439 E7.46303
G1 X117.060 Y66.279 E7.49857
G1 X117.443 Y66.223 E7.53436
G1 X117.516 Y66.234 E7.54125
G1 X117.826 Y66.279 E7.57015 F360.000
G1 X118.175 Y66.439 E7.60570
G1 X118.465 Y66.690 E7.64123
G1 X118.673 Y67.014 E7.67679
G1 X118.782 Y67.384 E7.71245
G1 X118.782 Y67.770 E7.74821
G1 X118.673 Y68.140 E7.78387
G1 X118.465 Y68.463 E7.81942
G1 X118.175 Y68.715 E7.85495
G1 X117.826 Y68.875 E7.89050
G1 X117.672 Y68.897 E7.90484
G1 F2400.000 E4.90484
G92 E0
G1 X117.534 Y65.922 F4200.000
G1 X117.443 Y71.178 F4200.000
G1 E3.00000 F2400.000
G1 X118.007 Y71.259 E3.05277 F720.000
G1 X118.523 Y71.496 E3.10521
G1 X118.950 Y71.866 E3.15756
G1 X119.257 Y72.343 E3.20999
G1 X119.418 Y72.888 E3.26257
G1 X119.418 Y73.458 E3.31531
G1 X119.257 Y74.004 E3.36790
G1 X118.950 Y74.480 E3.42032
G1 X118.523 Y74.851 E3.47268
G1 X118.007 Y75.088 E3.52512
G1 X117.443 Y75.169 E3.57788
G1 X116.878 Y75.088 E3.63065
G1 X116.363 Y74.851 E3.68309
G1 X115.935 Y74.480 E3.73545
G1 X115.628 Y74.004 E3.78787
G1 X115.467 Y73.458 E3.84046
G1 X115.467 Y72.888 E3.89320
G1 X115.628 Y72.343 E3.94579
G1 X115.935 Y71.866 E3.99820
G1 X116.363 Y71.496 E4.05056
G1 X116.878 Y71.259 E4.10300
G1 X117.042 Y71.235 E4.11835
G1 X117.383 Y71.186 E4.15022 F720.000
G1 X117.443 Y71.820 F4200.000
G1 X117.516 Y71.830 E4.15711 F360.000
G1 X117.826 Y71.875 E4.18601 F360.000
G1 X118.175 Y72.035 E4.22156
G1 X118.465 Y72.287 E4.25709
G1 X118.673 Y72.610 E4.29265
G1 X118.782 Y72.980 E4.32831
G1 X118.782 Y73.367 E4.36407
G1 X118.673 Y73.737 E4.39973
G1 X118.465 Y74.060 E4.43528
G1 X118.175 Y74.311 E4.47081
G1 X117.826 Y74.472 E4.50637
G1 X117.443 Y74.527 E4.54215
G1 X117.060 Y74.472 E4.57794
G1 X116.710 Y74.311 E4.61349
G1 X116.420 Y74.060 E4.64902
G1 X116.212 Y73.737 E4.68458
G1 X116.103 Y73.367 E4.72024
G1 X116.103 Y72.980 E4.75600
G1 X116.212 Y72.610 E4.79166
G1 X116.420 Y72.287 E4.82721
G1 X116.710 Y72.035 E4.86274
G1 X117.060 Y71.875 E4.89829
G1 X117.383 Y71.828 E4.92853
G1 X117.689 Y71.570 F4200.000
G1 F2400.000 E1.92853
G92 E0
G1 X118.011 Y81.568 F4200.000
G1 E3.00000 F2400.000
G1 X118.870 Y81.962 E3.08742 F720.000
G1 X119.435 Y82.452 E3.15661
G1 X119.841 Y83.082 E3.22589
G1 X120.054 Y83.803 E3.29541
G1 X120.054 Y84.557 E3.36513
G1 X119.841 Y85.278 E3.43465
G1 X119.435 Y85.908 E3.50392
G1 X118.870 Y86.398 E3.57311
G1 X118.189 Y86.710 E3.64245
G1 X117.443 Y86.818 E3.71218
G1 X116.696 Y86.710 E3.78194
G1 X116.015 Y86.398 E3.85127
G1 X115.450 Y85.908 E3.92045
G1 X115.044 Y85.278 E3.98974
G1 X114.832 Y84.557 E4.05925
G1 X114.832 Y83.803 E4.12897
G1 X115.044 Y83.082 E4.19849
G1 X115.450 Y82.452 E4.26776
G1 X116.055 Y81.928 E4.34186
G1 X116.055 Y81.209 E4.40833
G1 X115.450 Y80.684 E4.48243
G1 X115.044 Y80.054 E4.55171
G1 X114.832 Y79.333 E4.62123
G1 X114.832 Y78.580 E4.69094
G1 X115.044 Y77.859 E4.76046
G1 X115.450 Y77.229 E4.82974
G1 X116.015 Y76.739 E4.89893
G1 X116.247 Y76.632 E4.92257
G1 X116.696 Y76.426 E4.96826
G1 X117.443 Y76.318 E5.03800
G1 X118.189 Y76.426 E5.10775
G1 X118.870 Y76.739 E5.17708
G1 X119.435 Y77.229 E5.24627
G1 X119.841 Y77.859 E5.31555
G1 X120.054 Y78.580 E5.38507
G1 X120.054 Y79.333 E5.45479
G1 X119.841 Y80.054 E5.52431
G1 X119.435 Y80.684 E5.59358
G1 X118.870 Y81.174 E5.66277
G1 X118.066 Y81.543 E5.74465
G1 X117.912 Y80.884 F4200.000
G1 X117.443 Y80.952 E5.78853 F720.000
G1 X116.878 Y80.871 E5.84130
G1 X116.363 Y80.634 E5.89374
G1 X115.935 Y80.264 E5.94610
G1 X115.628 Y79.787 E5.99852
G1 X115.467 Y79.242 E6.05111
G1 X115.467 Y78.671 E6.10384
G1 X115.628 Y78.126 E6.15643
G1 X115.935 Y77.650 E6.20885
G1 X116.363 Y77.279 E6.26121
G1 X116.878 Y77.042 E6.31365
G1 X117.042 Y77.019 E6.32900
G1 X117.443 Y76.961 E6.36642 F720.000
G1 X118.007 Y77.042 E6.41918
G1 X118.523 Y77.279 E6.47163
G1 X118.950 Y77.650 E6.52398
G1 X119.257 Y78.126 E6.57640
G1 X119.418 Y78.671 E6.62899
G1 X119.418 Y79.242 E6.68173
G1 X119.257 Y79.787 E6.73432
G1 X118.950 Y80.263 E6.78674
G1 X118.523 Y80.634 E6.83910
G1 X117.972 Y80.876 E6.89474
G1 X117.821 Y80.255 F4200.000
G1 X117.443 Y80.310 E6.93012 F360.000
G1 X117.060 Y80.255 E6.96591
G1 X116.710 Y80.095 E7.00146
G1 X116.420 Y79.843 E7.03699
G1 X116.212 Y79.520 E7.07255
G1 X116.103 Y79.150 E7.10821
G1 X116.103 Y78.763 E7.14397
G1 X116.212 Y78.393 E7.17963
G1 X116.420 Y78.070 E7.21519
G1 X116.710 Y77.819 E7.25072
G1 X117.060 Y77.658 E7.28627
G1 X117.443 Y77.603 E7.32205
G1 X117.516 Y77.614 E7.32894
G1 X117.826 Y77.658 E7.35784 F360.000
G1 X118.175 Y77.819 E7.39339
G1 X118.465 Y78.070 E7.42892
G1 X118.673 Y78.393 E7.46448
G1 X118.782 Y78.763 E7.50014
G1 X118.782 Y79.150 E7.53590
G1 X118.673 Y79.520 E7.57156
G1 X118.465 Y79.843 E7.60712
G1 X118.175 Y80.095 E7.64264
G1 X117.876 Y80.232 E7.67305
G1 F2400.000 E4.67305
G92 E0
G1 X117.519 Y77.301 F4200.000
G1 X116.691 Y82.352 F4200.000
G1 E3.00000 F2400.000
G1 X116.691 Y81.662 E3.06380 F720.000
G1 X118.523 Y82.502 E3.25021
G1 X118.950 Y82.873 E3.30257
G1 X119.257 Y83.350 E3.35499
G1 X119.418 Y83.895 E3.40758
G1 X119.418 Y84.465 E3.46032
G1 X119.257 Y85.010 E3.51291
G1 X118.950 Y85.487 E3.56532
G1 X118.523 Y85.858 E3.61768
G1 X118.373 Y85.926 E3.63291
G1 X118.007 Y86.094 E3.67013
G1 X117.443 Y86.176 E3.72289
G1 X116.878 Y86.094 E3.77566
G1 X116.363 Y85.858 E3.82810
G1 X115.935 Y85.487 E3.88045
G1 X115.628 Y85.010 E3.93287
G1 X115.467 Y84.465 E3.98546
G1 X115.467 Y84.299 E4.00083
G1 X115.467 Y83.895 E4.03820
G1 X115.628 Y83.349 E4.09079
G1 X115.935 Y82.873 E4.14321
G1 X116.363 Y82.502 E4.19557
G1 X116.636 Y82.377 E4.22340
G1 X116.956 Y82.929 F4200.000
G1 X117.060 Y82.882 E4.23398 F360.000
G1 X117.326 Y82.843 E4.25890
G1 X117.326 Y82.653 E4.27651
G1 X118.175 Y83.042 E4.36287
G1 X118.465 Y83.294 E4.39839 F360.000
G1 X118.673 Y83.617 E4.43395
G1 X118.782 Y83.987 E4.46961
G1 X118.782 Y84.373 E4.50537
G1 X118.673 Y84.743 E4.54103
G1 X118.465 Y85.066 E4.57659
G1 X118.175 Y85.318 E4.61212
G1 X117.826 Y85.478 E4.64767
G1 X117.443 Y85.534 E4.68345
G1 X117.060 Y85.478 E4.71924
G1 X116.710 Y85.318 E4.75479
G1 X116.420 Y85.066 E4.79032
G1 X116.212 Y84.743 E4.82588
G1 X116.103 Y84.373 E4.86154
G1 X116.103 Y83.987 E4.89730
G1 X116.212 Y83.617 E4.93296
G1 X116.420 Y83.294 E4.96852
G1 X116.710 Y83.042 E5.00405
G1 X116.901 Y82.954 E5.02347
G1 X118.498 Y82.834 F4200.000
G1 F2400.000 E2.02347
G92 E0
G1 X71.290 Y97.938 F4200.000
G1 E3.00000 F2400.000
G1 X71.290 Y97.358 E3.05364 F720.000
G1 X71.584 Y97.015 E3.09547
G1 X71.795 Y96.670 E3.13286
G1 X71.950 Y96.298 E3.17013
G1 X72.043 Y95.908 E3.20720
G1 X72.077 Y95.500 E3.24505
G1 X72.043 Y95.092 E3.28291
G1 X71.950 Y94.702 E3.31997
G1 X71.795 Y94.330 E3.35725
G1 X71.584 Y93.986 E3.39463
G1 X71.322 Y93.679 E3.43198
G1 X71.014 Y93.416 E3.46938
G1 X70.670 Y93.205 E3.50674
G1 X70.296 Y93.050 E3.54414
G1 X69.903 Y92.955 E3.58152
G1 X69.500 Y92.924 E3.61894
G1 X69.121 Y92.953 E3.65407
G1 X69.121 Y53.547 E7.29884
G1 X69.500 Y53.576 E7.33397
G1 X69.903 Y53.545 E7.37139
G1 X70.296 Y53.450 E7.40877
G1 X70.670 Y53.295 E7.44617
G1 X71.014 Y53.084 E7.48352
G1 X71.322 Y52.821 E7.52093
G1 X71.584 Y52.514 E7.55827
G1 X71.795 Y52.170 E7.59566
G1 X71.950 Y51.798 E7.63293
G1 X72.043 Y51.408 E7.66999
G1 X72.077 Y51.000 E7.70785
G1 X72.043 Y50.592 E7.74571
G1 X71.950 Y50.202 E7.78277
G1 X71.795 Y49.830 E7.82005
G1 X71.584 Y49.486 E7.85743
G1 X71.322 Y49.179 E7.89478
G1 X71.014 Y48.916 E7.93218
G1 X70.670 Y48.705 E7.96954
G1 X70.249 Y48.531 E8.01167
G1 X70.330 Y48.121 E8.05030
G1 X129.670 Y48.121 E13.53871
G1 X129.751 Y48.531 E13.57733
G1 X129.330 Y48.705 E13.61946
G1 X128.986 Y48.916 E13.65682
G1 X128.678 Y49.179 E13.69422
G1 X128.416 Y49.486 E13.73158
G1 X128.205 Y49.830 E13.76896
G1 X128.050 Y50.202 E13.80623
G1 X127.957 Y50.592 E13.84329
G1 X127.923 Y51.000 E13.88115
G1 X127.957 Y51.408 E13.91901
G1 X128.050 Y51.798 E13.95607
G1 X128.205 Y52.170 E13.99334
G1 X128.416 Y52.514 E14.03072
G1 X128.678 Y52.821 E14.06807
G1 X128.986 Y53.084 E14.10547
G1 X129.330 Y53.295 E14.14283
G1 X129.704 Y53.450 E14.18023
G1 X130.879 Y53.734 E14.29204
G1 X130.879 Y92.953 E17.91947
G1 X130.500 Y92.924 E17.95461
G1 X130.097 Y92.955 E17.99202
G1 X129.704 Y93.050 E18.02940
G1 X129.330 Y93.205 E18.06680
G1 X128.986 Y93.416 E18.10416
G1 X128.678 Y93.679 E18.14156
G1 X128.416 Y93.986 E18.17891
G1 X128.205 Y94.330 E18.21630
G1 X128.050 Y94.702 E18.25356
G1 X127.957 Y95.092 E18.29063
G1 X127.923 Y95.500 E18.32848
G1 X127.957 Y95.908 E18.36634
G1 X128.050 Y96.298 E18.40341
G1 X128.205 Y96.670 E18.44067
G1 X128.416 Y97.014 E18.47805
G1 X128.678 Y97.321 E18.51541
G1 X128.986 Y97.584 E18.55280
G1 X129.330 Y97.795 E18.59016
G1 X129.704 Y97.950 E18.62757
G1 X130.097 Y98.045 E18.66495
G1 X130.500 Y98.076 E18.70237
G1 X130.879 Y98.047 E18.73750
G1 X130.879 Y136.453 E22.28978
G1 X130.500 Y136.424 E22.32492
G1 X130.097 Y136.455 E22.36233
G1 X129.704 Y136.550 E22.39971
G1 X129.330 Y136.705 E22.43711
G1 X128.986 Y136.916 E22.47447
G1 X128.678 Y137.179 E22.51187
G1 X128.416 Y137.486 E22.54922
G1 X128.205 Y137.830 E22.58660
G1 X128.050 Y138.202 E22.62386
G1 X127.957 Y138.592 E22.66094
G1 X127.923 Y139.000 E22.69879
G1 X127.957 Y139.408 E22.73665
G1 X128.050 Y139.798 E22.77372
G1 X128.205 Y140.170 E22.81098
G1 X128.416 Y140.514 E22.84836
G1 X128.678 Y140.821 E22.88572
G1 X128.986 Y141.084 E22.92312
G1 X129.330 Y141.295 E22.96047
G1 X129.751 Y141.469 E23.00261
G1 X129.670 Y141.879 E23.04123
G1 X70.330 Y141.879 E28.52964
G1 X70.249 Y141.469 E28.56826
G1 X70.670 Y141.295 E28.61040
G1 X71.014 Y141.084 E28.64776
G1 X71.322 Y140.821 E28.68516
G1 X71.584 Y140.515 E28.72250
G1 X71.795 Y140.170 E28.75989
G1 X71.950 Y139.798 E28.79716
G1 X72.043 Y139.408 E28.83423
G1 X72.077 Y139.000 E28.87209
G1 X72.043 Y138.592 E28.90994
G1 X71.950 Y138.202 E28.94701
G1 X71.795 Y137.830 E28.98428
G1 X71.584 Y137.486 E29.02166
G1 X71.322 Y137.179 E29.05902
G1 X71.014 Y136.916 E29.09642
G1 X70.670 Y136.705 E29.13376
G1 X70.296 Y136.550 E29.17116
G1 X69.903 Y136.455 E29.20855
G1 X69.500 Y136.424 E29.24597
G1 X69.121 Y136.453 E29.28110
G1 X69.121 Y98.047 E32.83338
G1 X69.500 Y98.076 E32.86852
G1 X71.230 Y97.943 E33.02903
G1 X70.655 Y97.350 F4200.000
G1 X70.655 Y97.055 E33.05625 F720.000
G1 X70.871 Y96.870 E33.08257
G1 X71.068 Y96.640 E33.11063
G1 X71.227 Y96.380 E33.13880
G1 X71.343 Y96.100 E33.16683
G1 X71.414 Y95.807 E33.19470
G1 X71.439 Y95.500 E33.22321
G1 X71.414 Y95.193 E33.25172
G1 X71.343 Y94.900 E33.27959
G1 X71.227 Y94.620 E33.30762
G1 X71.068 Y94.360 E33.33579
G1 X70.871 Y94.130 E33.36385
G1 X70.639 Y93.932 E33.39203
G1 X70.381 Y93.773 E33.42011
G1 X70.099 Y93.657 E33.44829
G1 X69.804 Y93.585 E33.47640
G1 X69.500 Y93.562 E33.50456
G1 X69.196 Y93.585 E33.53271
G1 X68.901 Y93.657 E33.56082
G1 X68.486 Y93.828 E33.60239
G1 X68.486 Y52.672 E37.40896
G1 X68.901 Y52.843 E37.45053
